icons/svg/spinner_14.svg

<svg width="14" height="14" viewBox="0 0 14 14" xmlns="http://www.w3.org/2000/svg" xmlns:xlink="http://www.w3.org/1999/xlink"><title>animated/spinner_14</title><defs><path id="a" d="M7 0h7v7H7z"/></defs><g fill="none" fill-rule="evenodd"><path d="M7 13c3.3136463 0 6-2.6863537 6-6 0-3.31364628-2.6863537-6-6-6-3.31364628 0-6 2.68635372-6 6 0 3.3136463 2.68635372 6 6 6zm0 1c-3.86593103 0-7-3.134069-7-7 0-3.86593103 3.13406897-7 7-7 3.865931 0 7 3.13406897 7 7 0 3.865931-3.134069 7-7 7z" fill-opacity=".12" fill="#000" fill-rule="nonzero"/><mask id="b" fill="#fff"><use xlink:href="#a"/></mask><path d="M7 13c3.3136463 0 6-2.6863537 6-6 0-3.31364628-2.6863537-6-6-6-3.31364628 0-6 2.68635372-6 6 0 3.3136463 2.68635372 6 6 6zm0 1c-3.86593103 0-7-3.134069-7-7 0-3.86593103 3.13406897-7 7-7 3.865931 0 7 3.13406897 7 7 0 3.865931-3.134069 7-7 7z" fill="#000" fill-rule="nonzero" mask="url(#b)"/></g></svg>

<?xml version="1.0" encoding="UTF-8"?>
<svg width="14px" height="14px" viewBox="0 0 14 14" version="1.1" xmlns="http://www.w3.org/2000/svg" xmlns:xlink="http://www.w3.org/1999/xlink">
    <!-- Generator: Sketch 60.1 (88133) - https://sketch.com -->
    <title>animated/spinner_14</title>
    <desc>Created with Sketch.</desc>
    <g id="animated/spinner_14" stroke="none" stroke-width="1" fill="none" fill-rule="evenodd">
        <path d="M7,0 C10.865931,0 14,3.13406897 14,7 C14,10.865931 10.865931,14 7,14 C3.13406897,14 0,10.865931 0,7 C0,3.13406897 3.13406897,0 7,0 Z M7,1 C3.68635372,1 1,3.68635372 1,7 C1,10.3136463 3.68635372,13 7,13 C10.3136463,13 13,10.3136463 13,7 C13,3.68635372 10.3136463,1 7,1 Z" id="4/4" fill="#E6E8E8"></path>
        <path d="M7,0 C10.7854517,0 13.8690987,3.00478338 13.995941,6.75935025 L14,7 L13,7 C13,3.76160306 10.4344251,1.12242824 7.22493826,1.00413847 L7,1 L7,0 Z" id="1/4" fill="#171B1F"></path>
    </g>
</svg>
